X:1
T:Souter Creek
C:Aidan O'Rourke
S:LAU - Lightweights and Gentlemen
Z:robin.beech@mcgill.ca
N:Transposed to G
M:4/4
L:1/8
R:reel
K:G %Transposed from D
|: BdcA GDGA | ABAG EAGB- | BdcA Gdga | bagd cedc |
BdcA GDGA | ABAG Edgb- | bagd dcBd |1 c/B/ABG AGcG  :|2 c/B/AB AGAB |:
DGBd c2BG | EGcd cBGE | DGBd EGcd | A2dc BcGE |
DGBd c2BG | EGcd cBga | bagd dcBd |1 c/B/AB AGAB  :|2 c/B/ABG AGcG |]
